X:287
T:Thine Arm, O Lord, in Days of Old
%%stretchlast false
M:4/4
L:1/4
K:F clef=C1
"^vi"[DAdf]/ "^vii7³"[DGde]/ "^vi"[DFAd] [DFAd]/ "^vi7³"[CFAd]/ "^IV"[B,FBd] | "^V7³"[B,EGc] "^I¹"[A,Fcf] "^vi"[DFAf] "^V"[CEcg] | "^I¹"[A,Fcf]/ "^vii°¹"[G,Beg]/ "^I"[F,Afa] [F,cfa] "^ii"[G,Bdg]/ "^ii7"[G,Bdf]/ | "^IV"[B,FBd] "^i"[CFGc]2 "^V"[CEGc] | "^I¹"[A,Fcf]/ "^Imaj7¹"[A,Fce]/ "^IV"[B,Fcd] [B,FBd]/ "^IVmaj7³"[A,FBd]/ "^ii7"[G,FBd]/ "^vi"[G,FAd]/ | "^V"[CEGc] "^I¹"[A,Fcf] "^♭v°¹"[DF=Bf] "^V"[CEcg]/ "^V7³"[B,Ecg]/ | "^I¹"[A,Fcf]/ "^vii°¹"[G,EBg]/ "^I"[F,FAa] "^I¹"[A,Fca] "^ii¹"[B,DBg]/ "^IV"[B,DBf]/ | "^ii"[G,DBd]/ "^viiø7¹"[G,EBd]/ "^vi"[DFAd]3 | [DFda]/ "^IV¹"[DFdb]/ "^iii"[A,Aec'] [Acea] "^vi7"[Dcfa]/ "^V7¹"[EBcg]/ | "^I"[FAcf] "^ii¹"[B,Gdg]/ "^ii7¹"[B,Fdg]/ "^V"[CEcg] "^iv7²"[F,FBa] | "^I¹"[A,Fcf]/ "^V²"[G,Ecg]/ "^I"[F,cfa] [F,cfa]/ "^vii°¹"[G,Beg]/ "^I¹"[A,Acf] | "^IV"[B,FBd]/ "^IVmaj7"[B,FAd]/ "^i"[CFGc]2 "^V"[CEGc] | "^I¹"[A,Fcf]/ "^Imaj7¹"[A,Fce]/ "^IV"[B,Fcd] [B,Fcd]/ "^vi7²"[A,Fcd]/ "^ii"[G,GBd]/ [G,GBc]/ | [GBd]/ "^vii°¹"[GBe]/ "^I"[FAcf]/ "^V¹"[EGcf]/ [DFcf]/ "^♭v°¹"[DF=Bf]/ "^V"[CEcg] | "^I¹"[A,Fcf]/ "^vii°¹"[G,EBg]/ "^I"[F,FAa] "^iii"[A,Eca] "^ii¹"[B,Ddg]/ "^IV"[B,Ddf]/ | "^ii"[G,DBd]/ "^viiø7¹"[G,EBd]/ "^vi"[DFAd]3 |]
